images-src/boss_rabbit_dying_of_falling_07.svg

<?xml version="1.0" encoding="UTF-8" standalone="no"?>
<!-- Created with Inkscape (http://www.inkscape.org/) -->

<svg
   xmlns:dc="http://purl.org/dc/elements/1.1/"
   xmlns:cc="http://creativecommons.org/ns#"
   xmlns:rdf="http://www.w3.org/1999/02/22-rdf-syntax-ns#"
   xmlns:svg="http://www.w3.org/2000/svg"
   xmlns="http://www.w3.org/2000/svg"
   xmlns:sodipodi="http://sodipodi.sourceforge.net/DTD/sodipodi-0.dtd"
   xmlns:inkscape="http://www.inkscape.org/namespaces/inkscape"
   width="32"
   height="32"
   id="svg2"
   version="1.1"
   inkscape:version="0.48.4 r9939"
   sodipodi:docname="rabbit-dying-of-falling-07.svg">
  <defs
     id="defs4" />
  <sodipodi:namedview
     id="base"
     pagecolor="#ffffff"
     bordercolor="#666666"
     borderopacity="1.0"
     inkscape:pageopacity="0.0"
     inkscape:pageshadow="2"
     inkscape:zoom="23.688078"
     inkscape:cx="15.743275"
     inkscape:cy="17.327669"
     inkscape:document-units="px"
     inkscape:current-layer="layer1"
     showgrid="false"
     inkscape:window-width="1920"
     inkscape:window-height="1031"
     inkscape:window-x="0"
     inkscape:window-y="26"
     inkscape:window-maximized="1" />
  <metadata
     id="metadata7">
    <rdf:RDF>
      <cc:Work
         rdf:about="">
        <dc:format>image/svg+xml</dc:format>
        <dc:type
           rdf:resource="http://purl.org/dc/dcmitype/StillImage" />
        <dc:title />
      </cc:Work>
    </rdf:RDF>
  </metadata>
  <g
     inkscape:label="Layer 1"
     inkscape:groupmode="layer"
     id="layer1"
     transform="translate(0,-1020.3622)">
    <path
       sodipodi:type="arc"
       style="fill:#ffffff;fill-opacity:1;stroke:#000000;stroke-opacity:1"
       id="path3768"
       sodipodi:cx="13.262222"
       sodipodi:cy="21.297777"
       sodipodi:rx="5.3688889"
       sodipodi:ry="8.6400003"
       d="m 18.631111,21.297777 a 5.3688889,8.6400003 0 1 1 -10.7377776,0 5.3688889,8.6400003 0 1 1 10.7377776,0 z"
       transform="matrix(0.20578316,0.78441353,-0.90082549,0.10448744,32.196267,1033.1452)" />
    <path
       transform="matrix(0.46702557,-0.09873545,0.44202859,0.56874421,1.6769049,1035.945)"
       sodipodi:type="arc"
       style="fill:#ffffff;fill-opacity:1;stroke:#000000;stroke-opacity:1"
       id="path3766-3"
       sodipodi:cx="17.528889"
       sodipodi:cy="29.475555"
       sodipodi:rx="3.3777778"
       sodipodi:ry="1.1733333"
       d="m 20.906667,29.475555 c 0,0.648015 -1.512283,1.173334 -3.377778,1.173334 -1.865495,0 -3.377778,-0.525319 -3.377778,-1.173334 0,-0.648014 1.512283,-1.173333 3.377778,-1.173333 1.865495,0 3.377778,0.525319 3.377778,1.173333 z" />
    <path
       sodipodi:type="arc"
       style="fill:#ffffff;fill-opacity:1;stroke:#000000;stroke-opacity:1"
       id="path3796-0"
       sodipodi:cx="13.795555"
       sodipodi:cy="27.946667"
       sodipodi:rx="3.6977777"
       sodipodi:ry="2.2755556"
       d="m 17.493333,27.946667 c 0,1.256754 -1.655552,2.275555 -3.697778,2.275555 -2.042226,0 -3.697778,-1.018801 -3.697778,-2.275555 0,-1.256755 1.655552,-2.275556 3.697778,-2.275556 2.042226,0 3.697778,1.018801 3.697778,2.275556 z"
       transform="matrix(0.44664041,-0.05601426,0.2789659,0.53549123,7.7830748,1034.9827)" />
    <path
       sodipodi:type="arc"
       style="fill:#ffffff;fill-opacity:1;stroke:#000000;stroke-opacity:1"
       id="path3792-5"
       sodipodi:cx="19.768888"
       sodipodi:cy="22.151112"
       sodipodi:rx="1.4222223"
       sodipodi:ry="3.8044446"
       d="m 21.191111,22.151112 c 0,2.101136 -0.636751,3.804444 -1.422223,3.804444 -0.785471,0 -1.422222,-1.703308 -1.422222,-3.804444 0,-2.101137 0.636751,-3.804445 1.422222,-3.804445 0.785472,0 1.422223,1.703308 1.422223,3.804445 z"
       transform="matrix(0.20924599,-0.97786303,0.97786303,0.20924599,1.47379,1064.9898)" />
    <path
       sodipodi:type="arc"
       style="fill:#ffffff;fill-opacity:1;stroke:#000000;stroke-opacity:1"
       id="path3792"
       sodipodi:cx="19.768888"
       sodipodi:cy="22.151112"
       sodipodi:rx="1.4222223"
       sodipodi:ry="3.8044446"
       d="m 21.191111,22.151112 c 0,2.101136 -0.636751,3.804444 -1.422223,3.804444 -0.785471,0 -1.422222,-1.703308 -1.422222,-3.804444 0,-2.101137 0.636751,-3.804445 1.422222,-3.804445 0.785472,0 1.422223,1.703308 1.422223,3.804445 z"
       transform="matrix(0.65751289,0.75344332,-0.75344332,0.65751289,10.877773,1017.7555)" />
    <path
       sodipodi:type="arc"
       style="fill:#ffffff;fill-opacity:1;stroke:#000000;stroke-opacity:1"
       id="path3772"
       sodipodi:cx="10.204445"
       sodipodi:cy="7.6088891"
       sodipodi:rx="3.3777778"
       sodipodi:ry="1.6355555"
       d="m 13.582223,7.6088891 c 0,0.9032924 -1.512283,1.6355555 -3.377778,1.6355555 -1.8654953,0 -3.3777779,-0.7322631 -3.3777779,-1.6355555 0,-0.9032924 1.5122826,-1.6355555 3.3777779,-1.6355555 1.865495,0 3.377778,0.7322631 3.377778,1.6355555 z"
       transform="matrix(0.28780304,0.8484031,-0.96840438,0.29583166,21.249529,1035.3969)" />
    <path
       sodipodi:type="arc"
       style="fill:#ffffff;fill-opacity:1;stroke:#000000;stroke-opacity:1"
       id="path3770"
       sodipodi:cx="16.782223"
       sodipodi:cy="9.8488894"
       sodipodi:rx="4.8355556"
       sodipodi:ry="3.9466667"
       d="m 21.617778,9.8488894 c 0,2.1796836 -2.164952,3.9466666 -4.835555,3.9466666 -2.670604,0 -4.835556,-1.766983 -4.835556,-3.9466666 0,-2.1796839 2.164952,-3.9466668 4.835556,-3.9466668 2.670603,0 4.835555,1.7669829 4.835555,3.9466668 z"
       transform="matrix(0.74357332,0.2079672,-0.24710085,0.72984212,12.410465,1038.3058)" />
    <path
       sodipodi:type="arc"
       style="fill:#4d4d4b;fill-opacity:1;stroke:#000000;stroke-opacity:1"
       id="path3772-7"
       sodipodi:cx="10.204445"
       sodipodi:cy="7.6088891"
       sodipodi:rx="3.3777778"
       sodipodi:ry="1.6355555"
       d="m 13.582223,7.6088891 c 0,0.9032924 -1.512283,1.6355555 -3.377778,1.6355555 -1.8654953,0 -3.3777779,-0.7322631 -3.3777779,-1.6355555 0,-0.9032924 1.5122826,-1.6355555 3.3777779,-1.6355555 1.865495,0 3.377778,0.7322631 3.377778,1.6355555 z"
       transform="matrix(-0.58652816,0.73647066,-0.68921995,-0.56197027,38.270973,1042.2851)" />
    <path
       sodipodi:type="arc"
       style="fill:#ffffff;fill-opacity:1;stroke:#000000;stroke-opacity:1"
       id="path3794"
       sodipodi:cx="20.088888"
       sodipodi:cy="9.7066669"
       sodipodi:rx="0.39111111"
       sodipodi:ry="0.39111111"
       d="m 20.479999,9.7066669 c 0,0.2160047 -0.175106,0.3911111 -0.391111,0.3911111 -0.216005,0 -0.391111,-0.1751064 -0.391111,-0.3911111 0,-0.2160047 0.175106,-0.3911111 0.391111,-0.3911111 0.216005,0 0.391111,0.1751064 0.391111,0.3911111 z"
       transform="matrix(1.1807069,0.14432601,-0.14432601,1.1807069,-1.5336363,1034.3965)" />
    <path
       sodipodi:type="arc"
       style="fill:#ffffff;fill-opacity:1;stroke:#000000;stroke-opacity:1"
       id="path3794-0"
       sodipodi:cx="20.088888"
       sodipodi:cy="9.7066669"
       sodipodi:rx="0.39111111"
       sodipodi:ry="0.39111111"
       d="m 20.479999,9.7066669 c 0,0.2160047 -0.175106,0.3911111 -0.391111,0.3911111 -0.216005,0 -0.391111,-0.1751064 -0.391111,-0.3911111 0,-0.2160047 0.175106,-0.3911111 0.391111,-0.3911111 0.216005,0 0.391111,0.1751064 0.391111,0.3911111 z"
       transform="matrix(1.2905733,0.15775574,-0.13156293,1.0762943,-0.136909,1034.2348)" />
  </g>
</svg>

<?xml version="1.0" encoding="UTF-8" standalone="no"?>
<!-- Created with Inkscape (http://www.inkscape.org/) -->

<svg
   xmlns:dc="http://purl.org/dc/elements/1.1/"
   xmlns:cc="http://creativecommons.org/ns#"
   xmlns:rdf="http://www.w3.org/1999/02/22-rdf-syntax-ns#"
   xmlns:svg="http://www.w3.org/2000/svg"
   xmlns="http://www.w3.org/2000/svg"
   xmlns:sodipodi="http://sodipodi.sourceforge.net/DTD/sodipodi-0.dtd"
   xmlns:inkscape="http://www.inkscape.org/namespaces/inkscape"
   width="32"
   height="32"
   id="svg2"
   version="1.1"
   inkscape:version="0.91 r13725"
   sodipodi:docname="boss_rabbit_dying_of_falling_07.svg">
  <defs
     id="defs4" />
  <sodipodi:namedview
     id="base"
     pagecolor="#ffffff"
     bordercolor="#666666"
     borderopacity="1.0"
     inkscape:pageopacity="0.0"
     inkscape:pageshadow="2"
     inkscape:zoom="16.750001"
     inkscape:cx="13.643675"
     inkscape:cy="10.021688"
     inkscape:document-units="px"
     inkscape:current-layer="layer1"
     showgrid="false"
     inkscape:window-width="1366"
     inkscape:window-height="717"
     inkscape:window-x="0"
     inkscape:window-y="0"
     inkscape:window-maximized="1" />
  <metadata
     id="metadata7">
    <rdf:RDF>
      <cc:Work
         rdf:about="">
        <dc:format>image/svg+xml</dc:format>
        <dc:type
           rdf:resource="http://purl.org/dc/dcmitype/StillImage" />
        <dc:title />
      </cc:Work>
    </rdf:RDF>
  </metadata>
  <g
     inkscape:label="Layer 1"
     inkscape:groupmode="layer"
     id="layer1"
     transform="translate(0,-1020.3622)">
    <path
       sodipodi:type="arc"
       style="fill:#000000;fill-opacity:1;stroke:#000000;stroke-opacity:1"
       id="path3768"
       sodipodi:cx="13.262222"
       sodipodi:cy="21.297777"
       sodipodi:rx="5.3688889"
       sodipodi:ry="8.6400003"
       d="m 18.631111,21.297777 a 5.3688889,8.6400003 0 0 1 -5.368889,8.640001 5.3688889,8.6400003 0 0 1 -5.3688886,-8.640001 5.3688889,8.6400003 0 0 1 5.3688886,-8.64 5.3688889,8.6400003 0 0 1 5.368889,8.64 z"
       transform="matrix(0.20578316,0.78441353,-0.90082549,0.10448744,32.196267,1033.1452)" />
    <path
       transform="matrix(0.46702557,-0.09873545,0.44202859,0.56874421,1.6769049,1035.945)"
       sodipodi:type="arc"
       style="fill:#ffffff;fill-opacity:1;stroke:#000000;stroke-opacity:1"
       id="path3766-3"
       sodipodi:cx="17.528889"
       sodipodi:cy="29.475555"
       sodipodi:rx="3.3777778"
       sodipodi:ry="1.1733333"
       d="m 20.906667,29.475555 a 3.3777778,1.1733333 0 0 1 -3.377778,1.173334 3.3777778,1.1733333 0 0 1 -3.377778,-1.173334 3.3777778,1.1733333 0 0 1 3.377778,-1.173333 3.3777778,1.1733333 0 0 1 3.377778,1.173333 z" />
    <path
       sodipodi:type="arc"
       style="fill:#ffffff;fill-opacity:1;stroke:#000000;stroke-opacity:1"
       id="path3796-0"
       sodipodi:cx="13.795555"
       sodipodi:cy="27.946667"
       sodipodi:rx="3.6977777"
       sodipodi:ry="2.2755556"
       d="m 17.493333,27.946667 a 3.6977777,2.2755556 0 0 1 -3.697778,2.275555 3.6977777,2.2755556 0 0 1 -3.697778,-2.275555 3.6977777,2.2755556 0 0 1 3.697778,-2.275556 3.6977777,2.2755556 0 0 1 3.697778,2.275556 z"
       transform="matrix(0.44664041,-0.05601426,0.2789659,0.53549123,7.7830748,1034.9827)" />
    <path
       sodipodi:type="arc"
       style="fill:#000000;fill-opacity:1;stroke:#000000;stroke-opacity:1"
       id="path3792-5"
       sodipodi:cx="19.768888"
       sodipodi:cy="22.151112"
       sodipodi:rx="1.4222223"
       sodipodi:ry="3.8044446"
       d="m 21.191111,22.151112 a 1.4222223,3.8044446 0 0 1 -1.422223,3.804444 1.4222223,3.8044446 0 0 1 -1.422222,-3.804444 1.4222223,3.8044446 0 0 1 1.422222,-3.804445 1.4222223,3.8044446 0 0 1 1.422223,3.804445 z"
       transform="matrix(0.20924599,-0.97786303,0.97786303,0.20924599,1.47379,1064.9898)" />
    <path
       sodipodi:type="arc"
       style="fill:#ffffff;fill-opacity:1;stroke:#000000;stroke-opacity:1"
       id="path3792"
       sodipodi:cx="19.768888"
       sodipodi:cy="22.151112"
       sodipodi:rx="1.4222223"
       sodipodi:ry="3.8044446"
       d="m 21.191111,22.151112 a 1.4222223,3.8044446 0 0 1 -1.422223,3.804444 1.4222223,3.8044446 0 0 1 -1.422222,-3.804444 1.4222223,3.8044446 0 0 1 1.422222,-3.804445 1.4222223,3.8044446 0 0 1 1.422223,3.804445 z"
       transform="matrix(0.65751289,0.75344332,-0.75344332,0.65751289,10.877773,1017.7555)" />
    <path
       sodipodi:type="arc"
       style="fill:#ffffff;fill-opacity:1;stroke:#000000;stroke-opacity:1"
       id="path3772"
       sodipodi:cx="10.204445"
       sodipodi:cy="7.6088891"
       sodipodi:rx="3.3777778"
       sodipodi:ry="1.6355555"
       d="M 13.582223,7.6088891 A 3.3777778,1.6355555 0 0 1 10.204445,9.2444446 3.3777778,1.6355555 0 0 1 6.8266671,7.6088891 3.3777778,1.6355555 0 0 1 10.204445,5.9733336 3.3777778,1.6355555 0 0 1 13.582223,7.6088891 Z"
       transform="matrix(0.28780304,0.8484031,-0.96840438,0.29583166,21.249529,1035.3969)" />
    <path
       sodipodi:type="arc"
       style="fill:#ffffff;fill-opacity:1;stroke:#000000;stroke-opacity:1"
       id="path3770"
       sodipodi:cx="16.782223"
       sodipodi:cy="9.8488894"
       sodipodi:rx="4.8355556"
       sodipodi:ry="3.9466667"
       d="M 21.617778,9.8488894 A 4.8355556,3.9466667 0 0 1 16.782223,13.795556 4.8355556,3.9466667 0 0 1 11.946667,9.8488894 4.8355556,3.9466667 0 0 1 16.782223,5.9022226 4.8355556,3.9466667 0 0 1 21.617778,9.8488894 Z"
       transform="matrix(0.74357332,0.2079672,-0.24710085,0.72984212,12.410465,1038.3058)" />
    <path
       sodipodi:type="arc"
       style="fill:#000000;fill-opacity:1;stroke:#000000;stroke-opacity:1"
       id="path3772-7"
       sodipodi:cx="10.204445"
       sodipodi:cy="7.6088891"
       sodipodi:rx="3.3777778"
       sodipodi:ry="1.6355555"
       d="M 13.582223,7.6088891 A 3.3777778,1.6355555 0 0 1 10.204445,9.2444446 3.3777778,1.6355555 0 0 1 6.8266671,7.6088891 3.3777778,1.6355555 0 0 1 10.204445,5.9733336 3.3777778,1.6355555 0 0 1 13.582223,7.6088891 Z"
       transform="matrix(-0.58652816,0.73647066,-0.68921995,-0.56197027,38.270973,1042.2851)" />
    <path
       sodipodi:type="arc"
       style="fill:#ffffff;fill-opacity:1;stroke:#000000;stroke-opacity:1"
       id="path3794"
       sodipodi:cx="20.088888"
       sodipodi:cy="9.7066669"
       sodipodi:rx="0.39111111"
       sodipodi:ry="0.39111111"
       d="M 20.479999,9.7066669 A 0.39111111,0.39111111 0 0 1 20.088888,10.097778 0.39111111,0.39111111 0 0 1 19.697777,9.7066669 0.39111111,0.39111111 0 0 1 20.088888,9.3155558 0.39111111,0.39111111 0 0 1 20.479999,9.7066669 Z"
       transform="matrix(1.1807069,0.14432601,-0.14432601,1.1807069,-1.5336363,1034.3965)" />
    <path
       sodipodi:type="arc"
       style="fill:#ffffff;fill-opacity:1;stroke:#000000;stroke-opacity:1"
       id="path3794-0"
       sodipodi:cx="20.088888"
       sodipodi:cy="9.7066669"
       sodipodi:rx="0.39111111"
       sodipodi:ry="0.39111111"
       d="M 20.479999,9.7066669 A 0.39111111,0.39111111 0 0 1 20.088888,10.097778 0.39111111,0.39111111 0 0 1 19.697777,9.7066669 0.39111111,0.39111111 0 0 1 20.088888,9.3155558 0.39111111,0.39111111 0 0 1 20.479999,9.7066669 Z"
       transform="matrix(1.2905733,0.15775574,-0.13156293,1.0762943,-0.136909,1034.2348)" />
  </g>
</svg>
